src/assets/svg/linkedin.svg

<svg version="1.1" xmlns="http://www.w3.org/2000/svg" width="32" height="32" viewBox="0 0 32 32">
<path fill="#0966c2" d="M27.263 27.269h-4.739v-7.425c0-1.771-0.036-4.049-2.469-4.049-2.471 0-2.848 1.927-2.848 3.919v7.556h-4.739v-15.269h4.552v2.081h0.061c0.636-1.2 2.183-2.467 4.493-2.467 4.801 0 5.689 3.16 5.689 7.273v8.381h-0.001zM7.116 9.911c-1.525 0-2.751-1.235-2.751-2.753 0-1.517 1.227-2.751 2.751-2.751 1.52 0 2.752 1.233 2.752 2.751 0 1.519-1.233 2.753-2.752 2.753zM9.492 27.269h-4.752v-15.269h4.752v15.269zM29.633 0h-27.272c-1.305 0-2.361 1.032-2.361 2.305v27.389c0 1.275 1.056 2.305 2.361 2.305h27.268c1.304 0 2.371-1.031 2.371-2.305v-27.389c0-1.273-1.067-2.305-2.371-2.305h0.004z"></path>
</svg>

<svg id="Group_64" data-name="Group 64" xmlns="http://www.w3.org/2000/svg" xmlns:xlink="http://www.w3.org/1999/xlink" width="31.999" height="32" viewBox="0 0 31.999 32">
  <defs>
    <style>
      .cls-1 {
        fill: #002664;
      }

      .cls-2 {
        clip-path: url(#clip-path);
      }
    </style>
    <clipPath id="clip-path">
      <rect id="Rectangle_74" data-name="Rectangle 74" class="cls-1" width="31.999" height="32"/>
    </clipPath>
  </defs>
  <g id="Group_63" data-name="Group 63" class="cls-2">
    <path id="Path_189" data-name="Path 189" class="cls-1" d="M29.631,0H2.361A2.336,2.336,0,0,0,0,2.308V29.692A2.337,2.337,0,0,0,2.361,32h27.27A2.34,2.34,0,0,0,32,29.692V2.308A2.339,2.339,0,0,0,29.631,0M9.492,27.268H4.742V12h4.75ZM7.119,9.91a2.752,2.752,0,1,1,2.75-2.753A2.752,2.752,0,0,1,7.119,9.91M27.268,27.268H22.524V19.842c0-1.772-.033-4.05-2.468-4.05-2.469,0-2.846,1.931-2.846,3.923v7.553h-4.74V12h4.549v2.088h.065a4.988,4.988,0,0,1,4.492-2.467c4.8,0,5.693,3.162,5.693,7.275Z"/>
  </g>
</svg>
